; generated by Slic3r 1.3.0 on 2022-05-02 at 10:38:17

; external perimeters extrusion width = 0.55mm (4.96mm^3/s)
; perimeters extrusion width = 0.70mm (12.93mm^3/s)
; infill extrusion width = 0.63mm (11.43mm^3/s)
; solid infill extrusion width = 0.70mm (3.23mm^3/s)
; top infill extrusion width = 0.70mm (2.42mm^3/s)

M107
M190 S40 ; set bed temperature and wait for it to be reached
M104 S210 ; set temperature
G28 ; home all axes
G1 Z5 F5000 ; lift nozzle

; Filament gcode

M109 S210 ; set temperature and wait for it to be reached
G21 ; set units to millimeters
G90 ; use absolute coordinates
M82 ; use absolute distances for extrusion
G92 E0
G1 Z0.350 F7800.000
G1 E-2.00000 F2400.00000
G92 E0
G1 X67.405 Y98.642 F7800.000
G1 E2.00000 F2400.00000
G1 F1800
G1 X93.905 Y84.642 E4.72523
G1 X97.000 Y83.875 E5.01515
G1 X103.000 Y83.875 E5.56072
G1 X106.095 Y84.642 E5.85063
G1 X132.595 Y98.642 E8.57587
G1 X134.406 Y100.048 E8.78441
G1 X135.630 Y101.988 E8.99295
G1 X136.125 Y104.500 E9.22574
G1 X136.125 Y163.500 E14.59059
G1 X135.728 Y165.759 E14.79913
G1 X134.585 Y167.747 E15.00767
G1 X132.832 Y169.226 E15.21622
G1 X130.680 Y170.019 E15.42476
G1 X129.500 Y170.125 E15.53247
G1 X70.500 Y170.125 E20.89731
G1 X68.241 Y169.728 E21.10586
G1 X66.253 Y168.585 E21.31440
G1 X64.774 Y166.832 E21.52294
G1 X63.981 Y164.680 E21.73148
G1 X63.875 Y163.500 E21.83919
G1 X63.875 Y104.500 E27.20404
G1 X64.272 Y102.241 E27.41258
G1 X65.415 Y100.253 E27.62112
G1 X67.347 Y98.690 E27.84709
G1 E25.84709 F2400.00000
G92 E0
G1 X101.400 Y106.100 F7800.000
G1 E2.00000 F2400.00000
G1 F1800
G1 X127.900 Y106.100 E4.40963
G1 X127.900 Y161.900 E9.48354
G1 X72.100 Y161.900 E14.55746
G1 X72.100 Y106.100 E19.63137
G1 X98.600 Y106.100 E22.04100
G1 X98.600 Y92.100 E23.31401
G1 X101.400 Y92.100 E23.56866
G1 X101.400 Y106.025 E24.83485
G1 X102.025 Y105.475 F7800.000
G1 F1800
G1 X128.525 Y105.475 E27.24449
G1 X128.525 Y162.525 E32.43204
G1 X71.475 Y162.525 E37.61959
G1 X71.475 Y105.475 E42.80714
G1 X97.975 Y105.475 E45.21678
G1 X97.975 Y91.475 E46.48979
G1 X102.025 Y91.475 E46.85808
G1 X102.025 Y105.400 E48.12427
G1 X102.650 Y104.850 F7800.000
G1 F1800
G1 X129.150 Y104.850 E50.53391
G1 X129.150 Y163.150 E55.83510
G1 X70.850 Y163.150 E61.13630
G1 X70.850 Y104.850 E66.43749
G1 X97.350 Y104.850 E68.84712
G1 X97.350 Y90.850 E70.12014
G1 X102.650 Y90.850 E70.60206
G1 X102.650 Y104.775 E71.86826
G1 X102.710 Y105.346 F7800.000
G1 E69.86826 F2400.00000
G92 E0
G1 X99.158 Y106.014 F7800.000
G1 E2.00000 F2400.00000
G1 F1800
G1 X100.842 Y104.331 E2.21726
G1 X100.842 Y103.444 E2.29821
G1 X99.158 Y105.127 E2.51547
G1 X99.158 Y104.240 E2.59643
G1 X100.842 Y102.557 E2.81369
G1 X100.842 Y101.670 E2.89464
G1 X99.158 Y103.353 E3.11190
G1 X99.158 Y102.466 E3.19285
G1 X100.842 Y100.783 E3.41011
G1 X100.842 Y99.896 E3.49107
G1 X99.158 Y101.579 E3.70833
G1 X99.158 Y100.692 E3.78928
G1 X100.842 Y99.009 E4.00654
G1 X100.842 Y98.122 E4.08749
G1 X99.158 Y99.805 E4.30475
G1 X99.158 Y98.918 E4.38570
G1 X100.842 Y97.235 E4.60296
G1 X100.842 Y96.348 E4.68392
G1 X99.158 Y98.031 E4.90118
G1 X99.158 Y97.144 E4.98213
G1 X100.842 Y95.461 E5.19939
G1 X100.842 Y94.574 E5.28034
G1 X99.158 Y96.257 E5.49760
G1 X99.158 Y95.370 E5.57856
G1 X100.842 Y93.687 E5.79582
G1 X100.842 Y92.800 E5.87677
G1 X99.158 Y94.483 E6.09403
G1 X99.158 Y93.596 E6.17498
G1 X100.096 Y92.658 E6.29603
G1 E4.29603 F2400.00000
G92 E0
G1 X72.659 Y106.791 F7800.000
G1 E2.00000 F2400.00000
G1 F1800
G1 X72.791 Y106.658 E2.01711
G1 X73.678 Y106.658 E2.09806
G1 X72.658 Y107.678 E2.22969
G1 X72.658 Y108.565 E2.31064
G1 X74.565 Y106.658 E2.55675
G1 X75.452 Y106.658 E2.63770
G1 X72.658 Y109.452 E2.99830
G1 X72.658 Y110.339 E3.07925
G1 X76.339 Y106.658 E3.55433
G1 X77.226 Y106.658 E3.63528
G1 X72.658 Y111.226 E4.22485
G1 X72.658 Y112.113 E4.30580
G1 X78.113 Y106.658 E5.00985
G1 X79.000 Y106.658 E5.09081
G1 X72.658 Y113.000 E5.90934
G1 X72.658 Y113.887 E5.99030
G1 X79.887 Y106.658 E6.92332
G1 X80.774 Y106.658 E7.00427
G1 X72.658 Y114.774 E8.05178
G1 X72.658 Y115.661 E8.13273
G1 X81.661 Y106.658 E9.29472
G1 X82.548 Y106.658 E9.37568
G1 X72.658 Y116.548 E10.65215
G1 X72.658 Y117.435 E10.73311
G1 X83.435 Y106.658 E12.12407
G1 X84.322 Y106.658 E12.20502
G1 X72.658 Y118.322 E13.71047
G1 X72.658 Y119.209 E13.79142
G1 X85.209 Y106.658 E15.41136
G1 X86.096 Y106.658 E15.49231
G1 X72.658 Y120.096 E17.22673
G1 X72.658 Y120.983 E17.30768
G1 X86.983 Y106.658 E19.15659
G1 X87.870 Y106.658 E19.23754
G1 X72.658 Y121.870 E21.20093
G1 X72.658 Y122.757 E21.28188
G1 X88.757 Y106.658 E23.35976
G1 X89.644 Y106.658 E23.44071
G1 X72.658 Y123.644 E25.63307
G1 X72.658 Y124.531 E25.71402
G1 X90.531 Y106.658 E28.02087
G1 X91.418 Y106.658 E28.10182
G1 X72.658 Y125.418 E30.52315
G1 X72.658 Y126.305 E30.60410
G1 X92.305 Y106.658 E33.13992
G1 X93.192 Y106.658 E33.22087
G1 X72.658 Y127.192 E35.87117
G1 X72.658 Y128.079 E35.95213
G1 X94.079 Y106.658 E38.71691
G1 X94.966 Y106.658 E38.79786
G1 X72.658 Y128.966 E41.67714
G1 X72.658 Y129.853 E41.75809
G1 X95.853 Y106.658 E44.75184
G1 X96.740 Y106.658 E44.83280
G1 X72.658 Y130.740 E47.94104
G1 X72.658 Y131.627 E48.02199
G1 X97.627 Y106.658 E51.24472
G1 X98.514 Y106.658 E51.32567
G1 X72.658 Y132.514 E54.66289
G1 X72.658 Y133.401 E54.74384
G1 X100.842 Y105.218 E58.38146
G1 X100.842 Y106.105 E58.46241
G1 X72.658 Y134.288 E62.10003
G1 X72.658 Y135.175 E62.18098
G1 X101.175 Y106.658 E65.86165
G1 X102.062 Y106.658 E65.94260
G1 X72.658 Y136.062 E69.73776
G1 X72.658 Y136.949 E69.81871
G1 X102.949 Y106.658 E73.72835
G1 X103.836 Y106.658 E73.80930
G1 X72.658 Y137.836 E77.83343
G1 X72.658 Y138.723 E77.91438
G1 X104.723 Y106.658 E82.05299
G1 X105.610 Y106.658 E82.13394
G1 X72.658 Y139.610 E86.38704
G1 X72.658 Y140.497 E86.46799
G1 X106.497 Y106.658 E90.83557
G1 X107.384 Y106.658 E90.91652
G1 X72.658 Y141.384 E95.39859
G1 X72.658 Y142.271 E95.47954
G1 X108.271 Y106.658 E100.07609
G1 X109.158 Y106.658 E100.15704
G1 X72.658 Y143.158 E104.86808
G1 X72.658 Y144.045 E104.94903
G1 X110.045 Y106.658 E109.77455
G1 X110.932 Y106.658 E109.85551
G1 X72.658 Y144.932 E114.79551
G1 X72.658 Y145.819 E114.87647
G1 X111.819 Y106.658 E119.93096
G1 X112.706 Y106.658 E120.01191
G1 X72.658 Y146.706 E125.18089
G1 X72.658 Y147.593 E125.26184
G1 X113.593 Y106.658 E130.54530
G1 X114.480 Y106.658 E130.62626
G1 X72.658 Y148.480 E136.02420
G1 X72.658 Y149.367 E136.10516
G1 X115.367 Y106.658 E141.61759
G1 X116.254 Y106.658 E141.69854
G1 X72.658 Y150.254 E147.32546
G1 X72.658 Y151.141 E147.40642
G1 X117.141 Y106.658 E153.14782
G1 X118.028 Y106.658 E153.22877
G1 X72.658 Y152.028 E159.08466
G1 X72.658 Y152.915 E159.16561
G1 X118.915 Y106.658 E165.13599
G1 X119.802 Y106.658 E165.21694
G1 X72.658 Y153.802 E171.30180
G1 X72.658 Y154.689 E171.38275
G1 X120.689 Y106.658 E177.58210
G1 X121.576 Y106.658 E177.66305
G1 X72.658 Y155.576 E183.97688
G1 X72.658 Y156.463 E184.05783
G1 X122.463 Y106.658 E190.48615
G1 X123.350 Y106.658 E190.56710
G1 X72.658 Y157.350 E197.10990
G1 X72.658 Y158.237 E197.19085
G1 X124.237 Y106.658 E203.84814
G1 X125.124 Y106.658 E203.92909
G1 X72.658 Y159.124 E210.70086
G1 X72.658 Y160.011 E210.78182
G1 X126.011 Y106.658 E217.66807
G1 X126.898 Y106.658 E217.74903
G1 X72.658 Y160.898 E224.74977
G1 X72.658 Y161.342 E224.79024
G1 X73.102 Y161.342 E224.83072
G1 X127.342 Y107.102 E231.83145
G1 X127.342 Y107.989 E231.91240
G1 X73.989 Y161.342 E238.79865
G1 X74.876 Y161.342 E238.87960
G1 X127.342 Y108.876 E245.65136
G1 X127.342 Y109.763 E245.73231
G1 X75.763 Y161.342 E252.38959
G1 X76.650 Y161.342 E252.47054
G1 X127.342 Y110.650 E259.01333
G1 X127.342 Y111.537 E259.09428
G1 X77.537 Y161.342 E265.52259
G1 X78.424 Y161.342 E265.60354
G1 X127.342 Y112.424 E271.91736
G1 X127.342 Y113.311 E271.99831
G1 X79.311 Y161.342 E278.19765
G1 X80.198 Y161.342 E278.27860
G1 X127.342 Y114.198 E284.36345
G1 X127.342 Y115.085 E284.44440
G1 X81.085 Y161.342 E290.41476
G1 X81.972 Y161.342 E290.49572
G1 X127.342 Y115.972 E296.35159
G1 X127.342 Y116.859 E296.43255
G1 X82.859 Y161.342 E302.17394
G1 X83.746 Y161.342 E302.25489
G1 X127.342 Y117.746 E307.88180
G1 X127.342 Y118.633 E307.96275
G1 X84.633 Y161.342 E313.47517
G1 X85.520 Y161.342 E313.55612
G1 X127.342 Y119.520 E318.95406
G1 X127.342 Y120.407 E319.03501
G1 X86.407 Y161.342 E324.31846
G1 X87.294 Y161.342 E324.39942
G1 X127.342 Y121.294 E329.56838
G1 X127.342 Y122.181 E329.64934
G1 X88.181 Y161.342 E334.70382
G1 X89.068 Y161.342 E334.78477
G1 X127.342 Y123.068 E339.72476
G1 X127.342 Y123.955 E339.80572
G1 X89.955 Y161.342 E344.63123
G1 X90.842 Y161.342 E344.71218
G1 X127.342 Y124.842 E349.42320
G1 X127.342 Y125.729 E349.50416
G1 X91.729 Y161.342 E354.10069
G1 X92.616 Y161.342 E354.18165
G1 X127.342 Y126.616 E358.66370
G1 X127.342 Y127.503 E358.74466
G1 X93.503 Y161.342 E363.11222
G1 X94.390 Y161.342 E363.19318
G1 X127.342 Y128.390 E367.44626
G1 X127.342 Y129.277 E367.52721
G1 X95.277 Y161.342 E371.66581
G1 X96.164 Y161.342 E371.74676
G1 X127.342 Y130.164 E375.77088
G1 X127.342 Y131.051 E375.85183
G1 X97.051 Y161.342 E379.76146
G1 X97.938 Y161.342 E379.84241
G1 X127.342 Y131.938 E383.63755
G1 X127.342 Y132.825 E383.71851
G1 X98.825 Y161.342 E387.39916
G1 X99.712 Y161.342 E387.48012
G1 X127.342 Y133.712 E391.04629
G1 X127.342 Y134.599 E391.12724
G1 X100.599 Y161.342 E394.57893
G1 X101.486 Y161.342 E394.65988
G1 X127.342 Y135.486 E397.99708
G1 X127.342 Y136.373 E398.07803
G1 X102.373 Y161.342 E401.30075
G1 X103.260 Y161.342 E401.38170
G1 X127.342 Y137.260 E404.48993
G1 X127.342 Y138.147 E404.57089
G1 X104.147 Y161.342 E407.56463
G1 X105.034 Y161.342 E407.64558
G1 X127.342 Y139.034 E410.52484
G1 X127.342 Y139.921 E410.60580
G1 X105.921 Y161.342 E413.37057
G1 X106.808 Y161.342 E413.45153
G1 X127.342 Y140.808 E416.10181
G1 X127.342 Y141.695 E416.18277
G1 X107.695 Y161.342 E418.71857
G1 X108.582 Y161.342 E418.79952
G1 X127.342 Y142.582 E421.22084
G1 X127.342 Y143.469 E421.30180
G1 X109.469 Y161.342 E423.60863
G1 X110.356 Y161.342 E423.68958
G1 X127.342 Y144.356 E425.88193
G1 X127.342 Y145.243 E425.96288
G1 X111.243 Y161.342 E428.04075
G1 X112.130 Y161.342 E428.12170
G1 X127.342 Y146.130 E430.08508
G1 X127.342 Y147.017 E430.16603
G1 X113.017 Y161.342 E432.01492
G1 X113.904 Y161.342 E432.09588
G1 X127.342 Y147.904 E433.83028
G1 X127.342 Y148.791 E433.91124
G1 X114.791 Y161.342 E435.53116
G1 X115.678 Y161.342 E435.61211
G1 X127.342 Y149.678 E437.11755
G1 X127.342 Y150.565 E437.19850
G1 X116.565 Y161.342 E438.58945
G1 X117.452 Y161.342 E438.67041
G1 X127.342 Y151.452 E439.94687
G1 X127.342 Y152.339 E440.02783
G1 X118.339 Y161.342 E441.18981
G1 X119.226 Y161.342 E441.27076
G1 X127.342 Y153.226 E442.31825
G1 X127.342 Y154.113 E442.39921
G1 X120.113 Y161.342 E443.33222
G1 X121.000 Y161.342 E443.41317
G1 X127.342 Y155.000 E444.23170
G1 X127.342 Y155.887 E444.31265
G1 X121.887 Y161.342 E445.01669
G1 X122.774 Y161.342 E445.09764
G1 X127.342 Y156.774 E445.68720
G1 X127.342 Y157.661 E445.76815
G1 X123.661 Y161.342 E446.24322
G1 X124.548 Y161.342 E446.32417
G1 X127.342 Y158.548 E446.68476
G1 X127.342 Y159.435 E446.76571
G1 X125.435 Y161.342 E447.01181
G1 X126.322 Y161.342 E447.09276
G1 X127.342 Y160.322 E447.22437
G1 X127.342 Y161.209 E447.30533
G1 X127.209 Y161.342 E447.32245
M106 S89.25
G1 Z0.600 F7800.000
G1 X101.507 Y105.993 F7800.000
G1 F4800
G1 X128.007 Y105.993 E449.10273
G1 X128.007 Y161.829 E452.85380
G1 X71.993 Y161.829 E456.61688
G1 X71.993 Y105.993 E460.36795
G1 X98.493 Y105.993 E462.14823
G1 X98.493 Y91.993 E463.08875
G1 X101.507 Y91.993 E463.29127
G1 X101.507 Y105.918 E464.22676
G1 X102.154 Y105.346 F7800.000
G1 F4800
G1 X128.654 Y105.346 E466.00704
G1 X128.654 Y162.475 E469.84495
G1 X71.346 Y162.475 E473.69487
G1 X71.346 Y105.346 E477.53279
G1 X97.846 Y105.346 E479.31307
G1 X97.846 Y91.346 E480.25359
G1 X102.154 Y91.346 E480.54295
G1 X102.154 Y105.271 E481.47844
G1 X102.725 Y104.775 F7800.000
G1 F2400
G1 X129.225 Y104.775 E482.84556
G1 X129.225 Y163.046 E485.85176
G1 X70.775 Y163.046 E488.86717
G1 X70.775 Y104.775 E491.87336
G1 X97.275 Y104.775 E493.24048
G1 X97.275 Y90.775 E493.96274
G1 X102.725 Y90.775 E494.24390
G1 X102.725 Y104.700 E494.96228
G1 X102.787 Y105.271 F7800.000
G1 X101.583 Y106.570 F7800.000
G1 F1200
G1 X127.430 Y132.417 E497.42896
G1 X127.430 Y131.499 E497.49092
G1 X102.501 Y106.570 E499.86996
G1 X103.419 Y106.570 E499.93193
G1 X127.430 Y130.581 E502.22335
G1 X127.430 Y129.663 E502.28531
G1 X104.337 Y106.570 E504.48910
G1 X105.256 Y106.570 E504.55106
G1 X127.430 Y128.744 E506.66722
G1 X127.430 Y127.826 E506.72919
G1 X106.174 Y106.570 E508.75772
G1 X107.092 Y106.570 E508.81968
G1 X127.430 Y126.908 E510.76059
G1 X127.430 Y125.990 E510.82255
G1 X108.010 Y106.570 E512.67583
G1 X108.928 Y106.570 E512.73779
G1 X127.430 Y125.072 E514.50345
G1 X127.430 Y124.153 E514.56541
G1 X109.847 Y106.570 E516.24343
G1 X110.765 Y106.570 E516.30540
G1 X127.430 Y123.235 E517.89579
G1 X127.430 Y122.317 E517.95775
G1 X111.683 Y106.570 E519.46052
G1 X112.601 Y106.570 E519.52249
G1 X127.430 Y121.399 E520.93763
G1 X127.430 Y120.481 E520.99959
G1 X113.519 Y106.570 E522.32710
G1 X114.438 Y106.570 E522.38906
G1 X127.430 Y119.562 E523.62895
G1 X127.430 Y118.644 E523.69091
G1 X115.356 Y106.570 E524.84317
G1 X116.274 Y106.570 E524.90513
G1 X127.430 Y117.726 E525.96976
G1 X127.430 Y116.808 E526.03173
G1 X117.192 Y106.570 E527.00873
G1 X118.110 Y106.570 E527.07069
G1 X127.430 Y115.890 E527.96007
G1 X127.430 Y114.971 E528.02203
G1 X119.029 Y106.570 E528.82378
G1 X119.947 Y106.570 E528.88574
G1 X127.430 Y114.053 E529.59986
G1 X127.430 Y113.135 E529.66182
G1 X120.865 Y106.570 E530.28831
G1 X121.783 Y106.570 E530.35028
G1 X127.430 Y112.217 E530.88914
G1 X127.430 Y111.299 E530.95110
G1 X122.701 Y106.570 E531.40234
G1 X123.620 Y106.570 E531.46430
G1 X127.430 Y110.380 E531.82791
G1 X127.430 Y109.462 E531.88987
G1 X124.538 Y106.570 E532.16586
G1 X125.456 Y106.570 E532.22782
G1 X127.430 Y108.544 E532.41617
G1 X127.430 Y107.626 E532.47813
G1 X126.374 Y106.570 E532.57886
G1 X127.292 Y106.570 E532.64082
G1 X127.430 Y106.708 E532.65392
G1 E530.65392 F2400.00000
G92 E0
G1 X100.930 Y93.062 F7800.000
G1 E2.00000 F2400.00000
G1 F1200
G1 X100.438 Y92.570 E2.04695
G1 X99.519 Y92.570 E2.10891
G1 X100.930 Y93.981 E2.24349
G1 X100.930 Y94.899 E2.30545
G1 X99.070 Y93.040 E2.48287
G1 X99.070 Y93.958 E2.54483
G1 X100.930 Y95.817 E2.72225
G1 X100.930 Y96.735 E2.78421
G1 X99.070 Y94.876 E2.96163
G1 X99.070 Y95.794 E3.02359
G1 X100.930 Y97.653 E3.20101
G1 X100.930 Y98.572 E3.26298
G1 X99.070 Y96.713 E3.44039
G1 X99.070 Y97.631 E3.50236
G1 X100.930 Y99.490 E3.67978
G1 X100.930 Y100.408 E3.74174
G1 X99.070 Y98.549 E3.91916
G1 X99.070 Y99.467 E3.98112
G1 X100.930 Y101.326 E4.15854
G1 X100.930 Y102.244 E4.22050
G1 X99.070 Y100.385 E4.39792
G1 X99.070 Y101.303 E4.45988
G1 X100.930 Y103.163 E4.63730
G1 X100.930 Y104.081 E4.69926
G1 X99.070 Y102.222 E4.87668
G1 X99.070 Y103.140 E4.93865
G1 X100.930 Y104.999 E5.11607
G1 X100.930 Y105.917 E5.17803
G1 X99.070 Y104.058 E5.35545
G1 X99.070 Y104.976 E5.41741
G1 X127.430 Y133.335 E8.12386
G1 X127.430 Y134.253 E8.18582
G1 X99.070 Y105.894 E10.89226
G1 X99.070 Y106.570 E10.93789
G1 X98.828 Y106.570 E10.95423
G1 X127.430 Y135.172 E13.68378
G1 X127.430 Y136.090 E13.74575
G1 X97.910 Y106.570 E16.56293
G1 X96.992 Y106.570 E16.62489
G1 X127.430 Y137.008 E19.52970
G1 X127.430 Y137.926 E19.59167
G1 X96.074 Y106.570 E22.58411
G1 X95.156 Y106.570 E22.64607
G1 X127.430 Y138.844 E25.72613
G1 X127.430 Y139.763 E25.78810
G1 X94.237 Y106.570 E28.95579
G1 X93.319 Y106.570 E29.01775
G1 X127.430 Y140.681 E32.27308
G1 X127.430 Y141.599 E32.33504
G1 X92.401 Y106.570 E35.67799
G1 X91.483 Y106.570 E35.73995
G1 X127.430 Y142.517 E39.17053
G1 X127.430 Y143.435 E39.23249
G1 X90.565 Y106.570 E42.75070
G1 X89.646 Y106.570 E42.81266
G1 X127.430 Y144.354 E46.41849
G1 X127.430 Y145.272 E46.48045
G1 X88.728 Y106.570 E50.17392
G1 X87.810 Y106.570 E50.23588
G1 X127.430 Y146.190 E54.01697
G1 X127.430 Y147.108 E54.07893
G1 X86.892 Y106.570 E57.94765
G1 X85.974 Y106.570 E58.00961
G1 X127.430 Y148.026 E61.96595
G1 X127.430 Y148.945 E62.02791
