; generated by Slic3r 1.3.0 on 2022-05-03 at 10:29:09

; external perimeters extrusion width = 0.55mm (4.96mm^3/s)
; perimeters extrusion width = 0.70mm (12.93mm^3/s)
; infill extrusion width = 0.63mm (11.43mm^3/s)
; solid infill extrusion width = 0.70mm (3.23mm^3/s)
; top infill extrusion width = 0.70mm (2.42mm^3/s)

M107
M190 S40 ; set bed temperature and wait for it to be reached
M104 S210 ; set temperature
G28 ; home all axes
G1 Z5 F5000 ; lift nozzle

; Filament gcode

M109 S210 ; set temperature and wait for it to be reached
G21 ; set units to millimeters
G90 ; use absolute coordinates
M82 ; use absolute distances for extrusion
G92 E0
G1 Z0.350 F7800.000
G1 E-2.00000 F2400.00000
G92 E0
G1 X91.157 Y62.980 F7800.000
G1 E2.00000 F2400.00000
G1 F1800
G1 X92.988 Y61.599 E2.20854
G1 X96.000 Y60.875 E2.49020
G1 X104.000 Y60.875 E3.21764
G1 X106.259 Y61.272 E3.42618
G1 X108.843 Y62.980 E3.70784
G1 X143.843 Y100.480 E8.37213
G1 X145.094 Y102.402 E8.58068
G1 X145.625 Y105.000 E8.82180
G1 X145.625 Y183.000 E15.91431
G1 X145.228 Y185.259 E16.12285
G1 X144.018 Y187.326 E16.34066
G1 X141.018 Y190.806 E16.75842
G1 X139.242 Y192.257 E16.96696
G1 X136.000 Y193.105 E17.27165
G1 X64.000 Y193.105 E23.81858
G1 X61.741 Y192.708 E24.02712
G1 X58.982 Y190.806 E24.33181
G1 X55.982 Y187.326 E24.74957
G1 X54.808 Y185.356 E24.95812
G1 X54.375 Y183.000 E25.17593
G1 X54.375 Y105.000 E32.26843
G1 X54.772 Y102.741 E32.47698
G1 X56.157 Y100.480 E32.71810
G1 X91.106 Y63.035 E37.37557
G1 E35.37557 F2400.00000
G92 E0
G1 X134.400 Y181.400 F7800.000
G1 E2.00000 F2400.00000
G1 F1800
G1 X134.400 Y183.880 E2.22547
G1 X65.600 Y183.880 E8.48147
G1 X65.600 Y181.400 E8.70694
G1 X62.600 Y181.400 E8.97973
G1 X62.600 Y106.600 E15.78130
G1 X97.600 Y106.600 E18.96384
G1 X97.600 Y69.100 E22.37370
G1 X102.400 Y69.100 E22.81020
G1 X102.400 Y106.600 E26.22006
G1 X137.400 Y106.600 E29.40260
G1 X137.400 Y181.400 E36.20417
G1 X134.475 Y181.400 E36.47014
G1 X135.025 Y182.025 F7800.000
G1 F1800
G1 X135.025 Y184.505 E36.69561
G1 X64.975 Y184.505 E43.06525
G1 X64.975 Y182.025 E43.29072
G1 X61.975 Y182.025 E43.56351
G1 X61.975 Y105.975 E50.47872
G1 X96.975 Y105.975 E53.66126
G1 X96.975 Y68.475 E57.07112
G1 X103.025 Y68.475 E57.62126
G1 X103.025 Y105.975 E61.03112
G1 X138.025 Y105.975 E64.21366
G1 X138.025 Y182.025 E71.12887
G1 X135.100 Y182.025 E71.39484
G1 X135.650 Y182.650 F7800.000
G1 F1800
G1 X135.650 Y185.130 E71.62032
G1 X64.350 Y185.130 E78.10359
G1 X64.350 Y182.650 E78.32907
G1 X61.350 Y182.650 E78.60186
G1 X61.350 Y105.350 E85.63071
G1 X96.350 Y105.350 E88.81325
G1 X96.350 Y67.850 E92.22311
G1 X103.650 Y67.850 E92.88689
G1 X103.650 Y105.350 E96.29675
G1 X138.650 Y105.350 E99.47929
G1 X138.650 Y182.650 E106.50814
G1 X135.725 Y182.650 E106.77411
G1 X135.214 Y182.894 F7800.000
G1 E104.77411 F2400.00000
G92 E0
G1 X136.709 Y180.842 F7800.000
G1 E2.00000 F2400.00000
G1 F1800
G1 X136.842 Y180.709 E2.01709
G1 X136.842 Y179.824 E2.09772
G1 X135.824 Y180.842 E2.22884
G1 X134.939 Y180.842 E2.30947
G1 X136.842 Y178.939 E2.55461
G1 X136.842 Y178.053 E2.63523
G1 X134.053 Y180.842 E2.99440
G1 X133.709 Y180.842 E3.02575
G1 X133.709 Y181.186 E3.05711
G1 X131.574 Y183.321 E3.33217
G1 X130.688 Y183.321 E3.41280
G1 X136.842 Y177.168 E4.20539
G1 X136.842 Y176.283 E4.28602
G1 X129.803 Y183.321 E5.19264
G1 X128.918 Y183.321 E5.27326
G1 X136.842 Y175.398 E6.29391
G1 X136.842 Y174.512 E6.37453
G1 X128.033 Y183.321 E7.50920
G1 X127.148 Y183.321 E7.58983
G1 X136.842 Y173.627 E8.83852
G1 X136.842 Y172.742 E8.91915
G1 X126.262 Y183.321 E10.28186
G1 X125.377 Y183.321 E10.36249
G1 X136.842 Y171.857 E11.83923
G1 X136.842 Y170.972 E11.91986
G1 X124.492 Y183.321 E13.51062
G1 X123.607 Y183.321 E13.59125
G1 X136.842 Y170.086 E15.29604
G1 X136.842 Y169.201 E15.37666
G1 X122.722 Y183.321 E17.19548
G1 X121.836 Y183.321 E17.27610
G1 X136.842 Y168.316 E19.20894
G1 X136.842 Y167.431 E19.28957
G1 X120.951 Y183.321 E21.33643
G1 X120.066 Y183.321 E21.41706
G1 X136.842 Y166.546 E23.57794
G1 X136.842 Y165.660 E23.65857
G1 X119.181 Y183.321 E25.93348
G1 X118.295 Y183.321 E26.01411
G1 X136.842 Y164.775 E28.40304
G1 X136.842 Y163.890 E28.48367
G1 X117.410 Y183.321 E30.98663
G1 X116.525 Y183.321 E31.06726
G1 X136.842 Y163.005 E33.68424
G1 X136.842 Y162.119 E33.76487
G1 X115.640 Y183.321 E36.49587
G1 X114.755 Y183.321 E36.57650
G1 X136.842 Y161.234 E39.42153
G1 X136.842 Y160.349 E39.50216
G1 X113.869 Y183.321 E42.46121
G1 X112.984 Y183.321 E42.54184
G1 X136.842 Y159.464 E45.61492
G1 X136.842 Y158.579 E45.69555
G1 X112.099 Y183.321 E48.88265
G1 X111.214 Y183.321 E48.96328
G1 X136.842 Y157.693 E52.26441
G1 X136.842 Y156.808 E52.34504
G1 X110.329 Y183.321 E55.76019
G1 X109.443 Y183.321 E55.84082
G1 X136.842 Y155.923 E59.36999
G1 X136.842 Y155.038 E59.45062
G1 X108.558 Y183.321 E63.09382
G1 X107.673 Y183.321 E63.17445
G1 X136.842 Y154.153 E66.93168
G1 X136.842 Y153.267 E67.01231
G1 X106.788 Y183.321 E70.88356
G1 X105.902 Y183.321 E70.96418
G1 X136.842 Y152.382 E74.94946
G1 X136.842 Y151.497 E75.03008
G1 X105.017 Y183.321 E79.12938
G1 X104.132 Y183.321 E79.21001
G1 X136.842 Y150.612 E83.42333
G1 X136.842 Y149.726 E83.50396
G1 X103.247 Y183.321 E87.83131
G1 X102.362 Y183.321 E87.91194
G1 X136.842 Y148.841 E92.35331
G1 X136.842 Y147.956 E92.43394
G1 X101.476 Y183.321 E96.98933
G1 X100.591 Y183.321 E97.06996
G1 X136.842 Y147.071 E101.73938
G1 X136.842 Y146.186 E101.82001
G1 X99.706 Y183.321 E106.60345
G1 X98.821 Y183.321 E106.68408
G1 X136.842 Y145.300 E111.58155
G1 X136.842 Y144.415 E111.66218
G1 X97.936 Y183.321 E116.67367
G1 X97.050 Y183.321 E116.75430
G1 X136.842 Y143.530 E121.87982
G1 X136.842 Y142.645 E121.96044
G1 X96.165 Y183.321 E127.19998
G1 X95.280 Y183.321 E127.28061
G1 X136.842 Y141.760 E132.63418
G1 X136.842 Y140.874 E132.71481
G1 X94.395 Y183.321 E138.18240
G1 X93.509 Y183.321 E138.26302
G1 X136.842 Y139.989 E143.84464
G1 X136.842 Y139.104 E143.92527
G1 X92.624 Y183.321 E149.62091
G1 X91.739 Y183.321 E149.70153
G1 X136.842 Y138.219 E155.51120
G1 X136.842 Y137.334 E155.59182
G1 X90.854 Y183.321 E161.51551
G1 X89.969 Y183.321 E161.59614
G1 X136.842 Y136.448 E167.63385
G1 X136.842 Y135.563 E167.71448
G1 X89.083 Y183.321 E173.86621
G1 X88.198 Y183.321 E173.94684
G1 X136.842 Y134.678 E180.21260
G1 X136.842 Y133.793 E180.29323
G1 X87.313 Y183.321 E186.67301
G1 X86.428 Y183.321 E186.75364
G1 X136.842 Y132.907 E193.24745
G1 X136.842 Y132.022 E193.32808
G1 X85.543 Y183.321 E199.93591
G1 X84.657 Y183.321 E200.01654
G1 X136.842 Y131.137 E206.73840
G1 X136.842 Y130.252 E206.81903
G1 X83.772 Y183.321 E213.65491
G1 X82.887 Y183.321 E213.73554
G1 X136.842 Y129.367 E220.68544
G1 X136.842 Y128.481 E220.76607
G1 X82.002 Y183.321 E227.83000
G1 X81.117 Y183.321 E227.91063
G1 X136.842 Y127.596 E235.08858
G1 X136.842 Y126.711 E235.16921
G1 X80.231 Y183.321 E242.46119
G1 X79.346 Y183.321 E242.54182
G1 X136.842 Y125.826 E249.94782
G1 X136.842 Y124.941 E250.02845
G1 X78.461 Y183.321 E257.54848
G1 X77.576 Y183.321 E257.62910
G1 X136.842 Y124.055 E265.26316
G1 X136.842 Y123.170 E265.34378
G1 X76.690 Y183.321 E273.09186
G1 X75.805 Y183.321 E273.17249
G1 X136.842 Y122.285 E281.03459
G1 X136.842 Y121.400 E281.11522
G1 X74.920 Y183.321 E289.09134
G1 X74.035 Y183.321 E289.17197
G1 X136.842 Y120.514 E297.26212
G1 X136.842 Y119.629 E297.34275
G1 X73.150 Y183.321 E305.54692
G1 X72.264 Y183.321 E305.62755
G1 X136.842 Y118.744 E313.94575
G1 X136.842 Y117.859 E314.02638
G1 X71.379 Y183.321 E322.45860
G1 X70.494 Y183.321 E322.53923
G1 X136.842 Y116.974 E331.08547
G1 X136.842 Y116.088 E331.16610
G1 X69.609 Y183.321 E339.82637
G1 X68.724 Y183.321 E339.90700
G1 X136.842 Y115.203 E348.68130
G1 X136.842 Y114.318 E348.76192
G1 X67.838 Y183.321 E357.65024
G1 X66.953 Y183.321 E357.73087
G1 X136.842 Y113.433 E366.73322
G1 X136.842 Y112.548 E366.81384
G1 X66.158 Y183.231 E375.91856
G1 X66.158 Y182.346 E375.99919
G1 X136.842 Y111.662 E385.10390
G1 X136.842 Y110.777 E385.18453
G1 X66.158 Y181.460 E394.28924
G1 X66.158 Y180.842 E394.34560
G1 X65.892 Y180.842 E394.36987
G1 X136.842 Y109.892 E403.50891
G1 X136.842 Y109.007 E403.58954
G1 X65.007 Y180.842 E412.84260
G1 X64.121 Y180.842 E412.92323
G1 X136.842 Y108.121 E422.29031
G1 X136.842 Y107.236 E422.37094
G1 X63.236 Y180.842 E431.85205
G1 X63.158 Y180.842 E431.85915
G1 X63.158 Y180.034 E431.93268
G1 X136.034 Y107.158 E441.31984
G1 X135.149 Y107.158 E441.40046
G1 X63.158 Y179.149 E450.67359
G1 X63.158 Y178.264 E450.75422
G1 X134.264 Y107.158 E459.91333
G1 X133.379 Y107.158 E459.99396
G1 X63.158 Y177.379 E469.03904
G1 X63.158 Y176.493 E469.11967
G1 X132.493 Y107.158 E478.05073
G1 X131.608 Y107.158 E478.13136
G1 X63.158 Y175.608 E486.94839
G1 X63.158 Y174.723 E487.02902
G1 X130.723 Y107.158 E495.73203
G1 X129.838 Y107.158 E495.81266
G1 X63.158 Y173.838 E504.40164
G1 X63.158 Y172.953 E504.48227
G1 X128.953 Y107.158 E512.95723
G1 X128.067 Y107.158 E513.03786
G1 X63.158 Y172.067 E521.39880
G1 X63.158 Y171.182 E521.47942
G1 X127.182 Y107.158 E529.72634
G1 X126.297 Y107.158 E529.80696
G1 X63.158 Y170.297 E537.93985
G1 X63.158 Y169.412 E538.02048
G1 X125.412 Y107.158 E546.03935
G1 X124.527 Y107.158 E546.11997
G1 X63.158 Y168.527 E554.02481
G1 X63.158 Y167.641 E554.10544
G1 X123.641 Y107.158 E561.89626
G1 X122.756 Y107.158 E561.97689
G1 X63.158 Y166.756 E569.65368
G1 X63.158 Y165.871 E569.73430
G1 X121.871 Y107.158 E577.29707
G1 X120.986 Y107.158 E577.37770
G1 X63.158 Y164.986 E584.82644
G1 X63.158 Y164.100 E584.90707
G1 X120.101 Y107.158 E592.24179
G1 X119.215 Y107.158 E592.32242
G1 X63.158 Y163.215 E599.54311
G1 X63.158 Y162.330 E599.62374
G1 X118.330 Y107.158 E606.73041
G1 X117.445 Y107.158 E606.81103
G1 X63.158 Y161.445 E613.80368
G1 X63.158 Y160.560 E613.88431
G1 X116.560 Y107.158 E620.76293
G1 X115.674 Y107.158 E620.84355
G1 X63.158 Y159.674 E627.60815
G1 X63.158 Y158.789 E627.68878
G1 X114.789 Y107.158 E634.33935
G1 X113.904 Y107.158 E634.41998
G1 X63.158 Y157.904 E640.95653
G1 X63.158 Y157.019 E641.03715
G1 X113.019 Y107.158 E647.45968
G1 X112.134 Y107.158 E647.54031
G1 X63.158 Y156.134 E653.84881
G1 X63.158 Y155.248 E653.92943
G1 X111.248 Y107.158 E660.12391
G1 X110.363 Y107.158 E660.20454
G1 X63.158 Y154.363 E666.28499
G1 X63.158 Y153.478 E666.36561
G1 X109.478 Y107.158 E672.33204
G1 X108.593 Y107.158 E672.41267
G1 X63.158 Y152.593 E678.26507
G1 X63.158 Y151.708 E678.34570
G1 X107.708 Y107.158 E684.08408
G1 X106.822 Y107.158 E684.16470
G1 X63.158 Y150.822 E689.78906
G1 X63.158 Y149.937 E689.86968
G1 X105.937 Y107.158 E695.38001
G1 X105.052 Y107.158 E695.46064
G1 X63.158 Y149.052 E700.85695
G1 X63.158 Y148.167 E700.93757
G1 X104.167 Y107.158 E706.21985
G1 X103.281 Y107.158 E706.30048
G1 X63.158 Y147.281 E711.46874
G1 X63.158 Y146.396 E711.54937
G1 X102.396 Y107.158 E716.60360
G1 X101.842 Y107.158 E716.65411
G1 X101.842 Y106.828 E716.68422
G1 X63.158 Y145.511 E721.66702
G1 X63.158 Y144.626 E721.74765
G1 X101.842 Y105.943 E726.73044
G1 X101.842 Y105.057 E726.81107
G1 X63.158 Y143.741 E731.79386
G1 X63.158 Y142.855 E731.87449
G1 X101.842 Y104.172 E736.85728
G1 X101.842 Y103.287 E736.93791
G1 X98.158 Y106.970 E737.41235
G1 X98.158 Y106.085 E737.49298
G1 X101.842 Y102.402 E737.96742
G1 X101.842 Y101.516 E738.04804
G1 X98.158 Y105.200 E738.52249
G1 X98.158 Y104.315 E738.60311
G1 X101.842 Y100.631 E739.07756
G1 X101.842 Y99.746 E739.15818
G1 X98.158 Y103.429 E739.63263
G1 X98.158 Y102.544 E739.71325
G1 X101.842 Y98.861 E740.18769
G1 X101.842 Y97.976 E740.26832
G1 X98.158 Y101.659 E740.74276
G1 X98.158 Y100.774 E740.82339
G1 X101.842 Y97.090 E741.29783
G1 X101.842 Y96.205 E741.37846
G1 X98.158 Y99.888 E741.85290
G1 X98.158 Y99.003 E741.93353
G1 X101.842 Y95.320 E742.40797
G1 X101.842 Y94.435 E742.48860
G1 X98.158 Y98.118 E742.96304
G1 X98.158 Y97.233 E743.04367
G1 X101.842 Y93.550 E743.51811
G1 X101.842 Y92.664 E743.59874
G1 X98.158 Y96.348 E744.07318
G1 X98.158 Y95.462 E744.15381
G1 X101.842 Y91.779 E744.62825
G1 X101.842 Y90.894 E744.70888
G1 X98.158 Y94.577 E745.18332
G1 X98.158 Y93.692 E745.26395
G1 X101.842 Y90.009 E745.73839
G1 X101.842 Y89.124 E745.81902
G1 X98.158 Y92.807 E746.29346
G1 X98.158 Y91.922 E746.37409
G1 X101.842 Y88.238 E746.84853
G1 X101.842 Y87.353 E746.92916
G1 X98.158 Y91.036 E747.40360
G1 X98.158 Y90.151 E747.48422
G1 X101.842 Y86.468 E747.95867
G1 X101.842 Y85.583 E748.03929
G1 X98.158 Y89.266 E748.51374
G1 X98.158 Y88.381 E748.59436
G1 X101.842 Y84.697 E749.06881
G1 X101.842 Y83.812 E749.14943
G1 X98.158 Y87.495 E749.62387
G1 X98.158 Y86.610 E749.70450
G1 X101.842 Y82.927 E750.17894
G1 X101.842 Y82.042 E750.25957
G1 X98.158 Y85.725 E750.73401
G1 X98.158 Y84.840 E750.81464
G1 X101.842 Y81.157 E751.28908
G1 X101.842 Y80.271 E751.36971
G1 X98.158 Y83.955 E751.84415
G1 X98.158 Y83.069 E751.92478
G1 X101.842 Y79.386 E752.39922
G1 X101.842 Y78.501 E752.47985
G1 X98.158 Y82.184 E752.95429
G1 X98.158 Y81.299 E753.03492
G1 X101.842 Y77.616 E753.50936
G1 X101.842 Y76.731 E753.58999
G1 X98.158 Y80.414 E754.06443
G1 X98.158 Y79.529 E754.14506
G1 X101.842 Y75.845 E754.61950
G1 X101.842 Y74.960 E754.70013
G1 X98.158 Y78.643 E755.17457
G1 X98.158 Y77.758 E755.25520
G1 X101.842 Y74.075 E755.72964
G1 X101.842 Y73.190 E755.81027
G1 X98.158 Y76.873 E756.28471
G1 X98.158 Y75.988 E756.36534
G1 X101.842 Y72.304 E756.83978
G1 X101.842 Y71.419 E756.92041
G1 X98.158 Y75.103 E757.39485
G1 X98.158 Y74.217 E757.47547
G1 X101.842 Y70.534 E757.94992
G1 X101.842 Y69.658 E758.02968
G1 X98.158 Y73.332 E758.50350
G1 X98.158 Y72.447 E758.58413
G1 X100.947 Y69.658 E758.94332
G1 X100.062 Y69.658 E759.02395
G1 X98.158 Y71.562 E759.26911
G1 X98.158 Y70.676 E759.34974
G1 X99.176 Y69.658 E759.48088
G1 X98.291 Y69.658 E759.56151
G1 X98.159 Y69.791 E759.57858
G1 E757.57858 F2400.00000
G92 E0
G1 X63.314 Y107.291 F7800.000
G1 E2.00000 F2400.00000
G1 F1800
G1 X63.158 Y107.291 E2.01420
G1 X63.158 Y107.447 E2.02841
G1 X63.447 Y107.158 E2.06557
G1 X64.332 Y107.158 E2.14620
G1 X63.158 Y108.332 E2.29739
G1 X63.158 Y109.217 E2.37801
G1 X65.217 Y107.158 E2.64322
G1 X66.103 Y107.158 E2.72385
G1 X63.158 Y110.103 E3.10309
G1 X63.158 Y110.988 E3.18371
G1 X66.988 Y107.158 E3.67697
G1 X67.873 Y107.158 E3.75760
G1 X63.158 Y111.873 E4.36489
G1 X63.158 Y112.758 E4.44551
G1 X68.758 Y107.158 E5.16682
G1 X69.643 Y107.158 E5.24745
G1 X63.158 Y113.643 E6.08278
G1 X63.158 Y114.529 E6.16341
G1 X70.529 Y107.158 E7.11277
G1 X71.414 Y107.158 E7.19339
G1 X63.158 Y115.414 E8.25678
G1 X63.158 Y116.299 E8.33740
G1 X72.299 Y107.158 E9.51481
G1 X73.184 Y107.158 E9.59544
G1 X63.158 Y117.184 E10.88687
G1 X63.158 Y118.069 E10.96749
G1 X74.069 Y107.158 E12.37295
G1 X74.955 Y107.158 E12.45358
G1 X63.158 Y118.955 E13.97305
G1 X63.158 Y119.840 E14.05368
G1 X75.840 Y107.158 E15.68718
G1 X76.725 Y107.158 E15.76781
G1 X63.158 Y120.725 E17.51534
G1 X63.158 Y121.610 E17.59597
G1 X77.610 Y107.158 E19.45752
G1 X78.495 Y107.158 E19.53815
G1 X63.158 Y122.495 E21.51372
G1 X63.158 Y123.381 E21.59435
G1 X79.381 Y107.158 E23.68395
G1 X80.266 Y107.158 E23.76458
G1 X63.158 Y124.266 E25.96820
G1 X63.158 Y125.151 E26.04883
G1 X81.151 Y107.158 E28.36648
G1 X82.036 Y107.158 E28.44710
G1 X63.158 Y126.036 E30.87878
G1 X63.158 Y126.922 E30.95940
G1 X82.922 Y107.158 E33.50510
G1 X83.807 Y107.158 E33.58573
G1 X63.158 Y127.807 E36.24545
G1 X63.158 Y128.692 E36.32608
G1 X84.692 Y107.158 E39.09983
G1 X85.577 Y107.158 E39.18045
G1 X63.158 Y129.577 E42.06822
G1 X63.158 Y130.462 E42.14885
G1 X86.462 Y107.158 E45.15064
G1 X87.348 Y107.158 E45.23127
G1 X63.158 Y131.348 E48.34709
G1 X63.158 Y132.233 E48.42772
G1 X88.233 Y107.158 E51.65756
G1 X89.118 Y107.158 E51.73819
G1 X63.158 Y133.118 E55.08206
G1 X63.158 Y134.003 E55.16268
G1 X90.003 Y107.158 E58.62058
G1 X90.888 Y107.158 E58.70120
G1 X63.158 Y134.888 E62.27312
G1 X63.158 Y135.774 E62.35375
G1 X91.774 Y107.158 E66.03969
G1 X92.659 Y107.158 E66.12031
G1 X63.158 Y136.659 E69.92028
G1 X63.158 Y137.544 E70.00091
G1 X93.544 Y107.158 E73.91490
G1 X94.429 Y107.158 E73.99552
G1 X63.158 Y138.429 E78.02354
G1 X63.158 Y139.315 E78.10416
G1 X95.315 Y107.158 E82.24620
G1 X96.200 Y107.158 E82.32683
G1 X63.158 Y140.200 E86.58289
